src/assets/logo.svg

<?xml version="1.0" encoding="UTF-8" standalone="no"?>
<svg
   xmlns:dc="http://purl.org/dc/elements/1.1/"
   xmlns:cc="http://creativecommons.org/ns#"
   xmlns:rdf="http://www.w3.org/1999/02/22-rdf-syntax-ns#"
   xmlns:svg="http://www.w3.org/2000/svg"
   xmlns="http://www.w3.org/2000/svg"
   xmlns:sodipodi="http://sodipodi.sourceforge.net/DTD/sodipodi-0.dtd"
   xmlns:inkscape="http://www.inkscape.org/namespaces/inkscape"
   width="72.69199714660644"
   height="34.71799993515015"
   viewBox="0 0 72.69199714660644 34.71799993515015"
   class="css-1j8o68f"
   version="1.1"
   id="svg9"
   sodipodi:docname="logo03.svg">
  <metadata
     id="metadata13">
    <rdf:RDF>
      <cc:Work
         rdf:about="">
        <dc:format>image/svg+xml</dc:format>
        <dc:type
           rdf:resource="http://purl.org/dc/dcmitype/StillImage" />
      </cc:Work>
    </rdf:RDF>
  </metadata>
  <sodipodi:namedview
     pagecolor="#ffffff"
     bordercolor="#666666"
     borderopacity="1"
     objecttolerance="10"
     gridtolerance="10"
     guidetolerance="10"
     inkscape:pageopacity="0"
     inkscape:pageshadow="2"
     inkscape:window-width="640"
     inkscape:window-height="480"
     id="namedview11" />
  <defs
     id="SvgjsDefs2648">
    <linearGradient
       id="SvgjsLinearGradient2651">
      <stop
         id="SvgjsStop2652"
         stop-color="#2d388a"
         offset="0" />
      <stop
         id="SvgjsStop2653"
         stop-color="#00aeef"
         offset="1" />
    </linearGradient>
  </defs>
  <g
     id="SvgjsG2649"
     featurekey="qafomr-0"
     transform="matrix(1.7,0,0,1.7,-0.6799997568130492,0.3779986381530769)"
     fill="url(#SvgjsLinearGradient2651)">
    <path
       d="M5.88 8.26 c-0.9 0 -0.88 0.82 -0.88 1.02 l0 0.32 l2.16 0 l0 2.6 l-2.16 0 l0 7.8 l-3.18 0 l0 -7.8 l-1.42 0 l0 -2.6 l1.42 0 l0 -0.32 c0 -3.22 2.42 -3.62 3.68 -3.62 c1 0 1.98 0.22 2.72 0.7 l-1.06 2.18 c-0.58 -0.22 -0.8 -0.28 -1.28 -0.28 z M14.92 9.42 c2.36 0 5.48 1.78 5.48 5.42 c0 3.66 -3.12 5.36 -5.48 5.36 s-5.48 -1.7 -5.48 -5.36 c0 -3.64 3.12 -5.42 5.48 -5.42 z M14.92 12.2 c-1.2 0 -2.42 0.92 -2.42 2.64 c0 1.66 1.22 2.58 2.42 2.58 s2.44 -0.92 2.44 -2.58 c0 -1.72 -1.24 -2.64 -2.44 -2.64 z M25.28 5.859999999999999 l0 14.14 l-3.16 0 l0 -14.14 l3.16 0 z M30.48 5.859999999999999 l0 2.66 l-3.16 0 l0 -2.66 l3.16 0 z M30.48 9.6 l0 10.4 l-3.16 0 l0 -10.4 l3.16 0 z M37.68 9.42 c2.36 0 5.48 1.78 5.48 5.42 c0 3.66 -3.12 5.36 -5.48 5.36 s-5.48 -1.7 -5.48 -5.36 c0 -3.64 3.12 -5.42 5.48 -5.42 z M37.68 12.2 c-1.2 0 -2.42 0.92 -2.42 2.64 c0 1.66 1.22 2.58 2.42 2.58 s2.44 -0.92 2.44 -2.58 c0 -1.72 -1.24 -2.64 -2.44 -2.64 z"
       id="path6" />
  </g>
</svg>

<?xml version="1.0" encoding="UTF-8" standalone="no"?>
<svg:svg
   class="css-1j8o68f"
   version="1.1"
   viewBox="0 0 72.692 24.718001"
   xmlnsCc="http://creativecommons.org/ns#"
   xmlnsDc="http://purl.org/dc/elements/1.1/"
   xmlnsRdf="http://www.w3.org/1999/02/22-rdf-syntax-ns#"
   id="svg15"
   sodipodi:docname="315949ff623122869508aabcd20d62f0.svg"
   width="72.692001"
   height="24.718"
   xmlns:inkscape="http://www.inkscape.org/namespaces/inkscape"
   xmlns:sodipodi="http://sodipodi.sourceforge.net/DTD/sodipodi-0.dtd"
   xmlns:xlink="http://www.w3.org/1999/xlink"
   xmlns:svg="http://www.w3.org/2000/svg">
  <sodipodi:namedview
     id="namedview17"
     pagecolor="#ffffff"
     bordercolor="#666666"
     borderopacity="1.0"
     inkscape:pageshadow="2"
     inkscape:pageopacity="0.0"
     inkscape:pagecheckerboard="0" />
  <svg:metadata
     id="metadata2">
    <RDF>
      <Work
         rdfAbout="">
        <format>image/svg+xml</format>
        <type
           rdfResource="http://purl.org/dc/dcmitype/StillImage" />
      </Work>
    </RDF>
  </svg:metadata>
  <svg:defs
     id="defs9">
    <svg:linearGradient
       id="a">
      <svg:stop
         stop-color="#2d388a"
         offset="0"
         id="stop4" />
      <svg:stop
         stop-color="#00aeef"
         offset="1"
         id="stop6" />
    </svg:linearGradient>
    <svg:linearGradient
       inkscape:collect="always"
       xlink:href="#a"
       id="linearGradient19"
       gradientTransform="scale(1.7148915,0.58312727)"
       x1="0.23325091"
       y1="9.7062858"
       x2="25.167773"
       y2="9.7062858"
       gradientUnits="userSpaceOnUse" />
    <svg:linearGradient
       inkscape:collect="always"
       xlink:href="#a"
       id="linearGradient21"
       gradientTransform="scale(1.7148915,0.58312727)"
       x1="0.23325091"
       y1="9.7062858"
       x2="25.167773"
       y2="9.7062858"
       gradientUnits="userSpaceOnUse" />
  </svg:defs>
  <svg:g
     transform="matrix(1.7,0,0,1.7,-0.68,-9.622)"
     fill="url(#a)"
     featurekey="qafomr-0"
     id="g13"
     style="fill:url(#linearGradient21)">
    <svg:path
       d="M 5.88,8.26 C 4.98,8.26 5,9.08 5,9.28 V 9.6 h 2.16 v 2.6 H 5 V 20 H 1.82 V 12.2 H 0.4 V 9.6 H 1.82 V 9.28 c 0,-3.22 2.42,-3.62 3.68,-3.62 1,0 1.98,0.22 2.72,0.7 L 7.16,8.54 C 6.58,8.32 6.36,8.26 5.88,8.26 Z m 9.04,1.16 c 2.36,0 5.48,1.78 5.48,5.42 0,3.66 -3.12,5.36 -5.48,5.36 -2.36,0 -5.48,-1.7 -5.48,-5.36 0,-3.64 3.12,-5.42 5.48,-5.42 z m 0,2.78 c -1.2,0 -2.42,0.92 -2.42,2.64 0,1.66 1.22,2.58 2.42,2.58 1.2,0 2.44,-0.92 2.44,-2.58 0,-1.72 -1.24,-2.64 -2.44,-2.64 z M 25.28,5.86 V 20 H 22.12 V 5.86 Z m 5.2,0 V 8.52 H 27.32 V 5.86 Z m 0,3.74 V 20 H 27.32 V 9.6 Z m 7.2,-0.18 c 2.36,0 5.48,1.78 5.48,5.42 0,3.66 -3.12,5.36 -5.48,5.36 -2.36,0 -5.48,-1.7 -5.48,-5.36 0,-3.64 3.12,-5.42 5.48,-5.42 z m 0,2.78 c -1.2,0 -2.42,0.92 -2.42,2.64 0,1.66 1.22,2.58 2.42,2.58 1.2,0 2.44,-0.92 2.44,-2.58 0,-1.72 -1.24,-2.64 -2.44,-2.64 z"
       id="path11"
       style="fill:url(#linearGradient19)" />
  </svg:g>
</svg:svg>
